src/assets/icons/like.svg

<svg width="24" height="24" fill="none" xmlns="http://www.w3.org/2000/svg"><mask id="a" style="mask-type:alpha" maskUnits="userSpaceOnUse" x="0" y="0" width="24" height="24"><path fill="#C4C4C4" d="M0 0h24v24H0z"/></mask><g mask="url(#a)"><path d="M12.05 21.914h-.014C9.453 21.866 2 15.132 2 8.754 2 5.69 4.525 3 7.403 3c2.29 0 3.83 1.58 4.646 2.73C12.863 4.582 14.403 3 16.694 3c2.88 0 5.404 2.69 5.404 5.755 0 6.376-7.454 13.11-10.037 13.157h-.011v.002zM7.404 4.501c-2.08 0-3.903 1.988-3.903 4.255 0 5.74 7.034 11.596 8.55 11.658 1.518-.062 8.55-5.917 8.55-11.658 0-2.267-1.823-4.255-3.903-4.255-2.528 0-3.94 2.936-3.952 2.965-.23.562-1.156.562-1.387 0-.014-.03-1.425-2.965-3.954-2.965h-.001z" fill="#000"/></g></svg>

<svg width="24" height="24" viewBox="0 0 24 24" fill="none" xmlns="http://www.w3.org/2000/svg">
<mask id="mask0_6_435" style="mask-type:alpha" maskUnits="userSpaceOnUse" x="0" y="0" width="24" height="24">
<rect width="24" height="24" fill="#C4C4C4"/>
</mask>
<g mask="url(#mask0_6_435)">
<path d="M12.05 21.914H12.036C9.453 21.866 2 15.132 2 8.754C2 5.69 4.525 3 7.403 3C9.693 3 11.233 4.58 12.049 5.73C12.863 4.582 14.403 3 16.694 3C19.574 3 22.098 5.69 22.098 8.755C22.098 15.131 14.644 21.865 12.061 21.912H12.05V21.914ZM7.404 4.501C5.324 4.501 3.501 6.489 3.501 8.756C3.501 14.496 10.535 20.352 12.051 20.414C13.569 20.352 20.601 14.497 20.601 8.756C20.601 6.489 18.778 4.501 16.698 4.501C14.17 4.501 12.758 7.437 12.746 7.466C12.516 8.028 11.59 8.028 11.359 7.466C11.345 7.436 9.93401 4.501 7.40501 4.501H7.404Z" fill="black"/>
</g>
</svg>
